P3
64 64
255
16 18 24  16 18 24  16 18 24  16 18 24  16 18 24  16 18 24  16 18 24  16 18 24  16 18 24  16 18 24  16 18 24  16 18 24  16 18 24  16 18 24  16 18 24  16 18 24  16 18 24  16 18 24  16 18 24  16 18 24  16 18 24  16 18 24  16 18 24  16 18 24  16 18 24  16 18 24  16 18 24  16 18 24  16 18 24  16 18 24  16 18 24  16 18 24  16 18 24  16 18 24  16 18 24  16 18 24  16 18 24  16 18 24  16 18 24  16 18 24  16 18 24  16 18 24  16 18 24  16 18 24  16 18 24  16 18 24  16 18 24  16 18 24  16 18 24  16 18 24  16 18 24  16 18 24  16 18 24  16 18 24
16 18 24  18 24 32  20 30 44  22 36 56  24 42 68  26 48 80  28 54 92  30 60 104  32 66 116  34 72 128  36 78 140  38 84 152  40 90 164  42 96 176  44 102 188  46 108 200  48 114 212  50 120 224  52 126 236  54 132 248  56 138 255  58 144 255  60 150 255  62 156 255  64 162 255  66 168 255  68 174 255  70 180 255  72 186 255  74 192 255  76 198 255  78 204 255  80 210 255  82 216 255  84 222 255  86 228 255  88 234 255  90 240 255  92 246 255  94 252 255  96 255 255  98 255 255  100 255 255  102 255 255  104 255 255  106 255 255  108 255 255  110 255 255  112 255 255  114 255 255  116 255 255  118 255 255  120 255 255  122 255 255  124 255 255  126 255 255  128 255 255
16 18 24  20 30 44  24 42 68  28 54 92  32 66 116  36 78 140  40 90 164  44 102 188  48 114 212  52 126 236  56 138 255  60 150 255  64 162 255  68 174 255  72 186 255  76 198 255  80 210 255  84 222 255  88 234 255  92 246 255  96 255 255  100 255 255  104 255 255  108 255 255  112 255 255  116 255 255  120 255 255  124 255 255  128 255 255  132 255 255  136 255 255  140 255 255  144 255 255  148 255 255  152 255 255  156 255 255  160 255 255  164 255 255  168 255 255  172 255 255  176 255 255  180 255 255  184 255 255  188 255 255  192 255 255
16 18 24  22 36 56  28 54 92  34 72 128  40 90 164  46 108 200  52 126 236  58 144 255  64 162 255  70 180 255  76 198 255  82 216 255  88 234 255  94 252 255  100 255 255  106 255 255  112 255 255  118 255 255  124 255 255  130 255 255  136 255 255  142 255 255  148 255 255  154 255 255  160 255 255  166 255 255  172 255 255  178 255 255  184 255 255  190 255 255  196 255 255  202 255 255  208 255 255  214 255 255  220 255 255  226 255 255  232 255 255  238 255 255  244 255 255  250 255 255  255 255 255  255 255 255  255 255 255  255 255 255  255 255 255  255 255 255  255 255 255  255 255 255
16 18 24  24 42 68  32 66 116  40 90 164  48 114 212  56 138 255  64 162 255  72 186 255  80 210 255  88 234 255  96 255 255  104 255 255  112 255 255  120 255 255  128 255 255  136 255 255  144 255 255  152 255 255  160 255 255  168 255 255  176 255 255  184 255 255  192 255 255  200 255 255  208 255 255  216 255 255  224 255 255  232 255 255  240 255 255  248 255 255  255 255 255  255 255 255  255 255 255  255 255 255  255 255 255  255 255 255  255 255 255  255 255 255  255 255 255  255 255 255  255 255 255  255 255 255  255 255 255
16 18 24  26 48 80  36 78 140  46 108 200  56 138 255  66 168 255  76 198 255  86 228 255  96 255 255  106 255 255  116 255 255  126 255 255  136 255 255  146 255 255  156 255 255  166 255 255  176 255 255  186 255 255  196 255 255  206 255 255  216 255 255  226 255 255  236 255 255  246 255 255  255 255 255  255 255 255  255 255 255  255 255 255  255 255 255  255 255 255  255 255 255  255 255 255  255 255 255  255 255 255  255 255 255  255 255 255  255 255 255  255 255 255  255 255 255  255 255 255
16 18 24  28 54 92  40 90 164  52 126 236  64 162 255  76 198 255  88 234 255  100 255 255  112 255 255  124 255 255  136 255 255  148 255 255  160 255 255  172 255 255  184 255 255  196 255 255  208 255 255  220 255 255  232 255 255  244 255 255  255 255 255  255 255 255  255 255 255  255 255 255  255 255 255  255 255 255  255 255 255  255 255 255  255 255 255  255 255 255  255 255 255  255 255 255  255 255 255  255 255 255  255 255 255  255 255 255
16 18 24  30 60 104  44 102 188  58 144 255  72 186 255  86 228 255  100 255 255  114 255 255  128 255 255  142 255 255  156 255 255  170 255 255  184 255 255  198 255 255  212 255 255  226 255 255  240 255 255  254 255 255  255 255 255  255 255 255  255 255 255  255 255 255  255 255 255  255 255 255  255 255 255  255 255 255  255 255 255  255 255 255  255 255 255  255 255 255  255 255 255  255 255 255  255 255 255  255 255 255  255 255 255  255 255 255
16 18 24  32 66 116  48 114 212  64 162 255  80 210 255  96 255 255  112 255 255  128 255 255  144 255 255  160 255 255  176 255 255  192 255 255  208 255 255  224 255 255  240 255 255  255 255 255  255 255 255  255 255 255  255 255 255  255 255 255  255 255 255  255 255 255  255 255 255  255 255 255  255 255 255  255 255 255  255 255 255  255 255 255  255 255 255  255 255 255  255 255 255  255 255 255  255 255 255
16 18 24  34 72 128  52 126 236  70 180 255  88 234 255  106 255 255  124 255 255  142 255 255  160 255 255  178 255 255  196 255 255  214 255 255  232 255 255  250 255 255  255 255 255  255 255 255  255 255 255  255 255 255  255 255 255  255 255 255  255 255 255  255 255 255  255 255 255  255 255 255  255 255 255  255 255 255  255 255 255  255 255 255  255 255 255  255 255 255
16 18 24  36 78 140  56 138 255  76 198 255  96 255 255  116 255 255  136 255 255  156 255 255  176 255 255  196 255 255  216 255 255  236 255 255  255 255 255  255 255 255  255 255 255  255 255 255  255 255 255  255 255 255  255 255 255  255 255 255  255 255 255  255 255 255  255 255 255  255 255 255  255 255 255  255 255 255  255 255 255  255 255 255
16 18 24  38 84 152  60 150 255  82 216 255  104 255 255  126 255 255  148 255 255  170 255 255  192 255 255  214 255 255  236 255 255  255 255 255  255 255 255  255 255 255  255 255 255  255 255 255  255 255 255  255 255 255  255 255 255  255 255 255  255 255 255  255 255 255  255 255 255  255 255 255  255 255 255
16 18 24  40 90 164  64 162 255  88 234 255  112 255 255  136 255 255  160 255 255  184 255 255  208 255 255  232 255 255  255 255 255  255 255 255  255 255 255  255 255 255  255 255 255  255 255 255  255 255 255  255 255 255  255 255 255  255 255 255  255 255 255  255 255 255  255 255 255
16 18 24  42 96 176  68 174 255  94 252 255  120 255 255  146 255 255  172 255 255  198 255 255  224 255 255  250 255 255  255 255 255  255 255 255  255 255 255  255 255 255  255 255 255  255 255 255  255 255 255  255 255 255  255 255 255  255 255 255  255 255 255
16 18 24  44 102 188  72 186 255  100 255 255  128 255 255  156 255 255  184 255 255  212 255 255  240 255 255  255 255 255  255 255 255  255 255 255  255 255 255  255 255 255  255 255 255  255 255 255  255 255 255  255 255 255  255 255 255  255 255 255  255 255 255
16 18 24  46 108 200  76 198 255  106 255 255  136 255 255  166 255 255  196 255 255  226 255 255  255 255 255  255 255 255  255 255 255  255 255 255  255 255 255  255 255 255  255 255 255  255 255 255  255 255 255  255 255 255  255 255 255  255 255 255
16 18 24  48 114 212  80 210 255  112 255 255  144 255 255  176 255 255  208 255 255  240 255 255  255 255 255  255 255 255  255 255 255  255 255 255  255 255 255  255 255 255  255 255 255  255 255 255  255 255 255  255 255 255
16 18 24  50 120 224  84 222 255  118 255 255  152 255 255  186 255 255  220 255 255  254 255 255  255 255 255  255 255 255  255 255 255  255 255 255  255 255 255  255 255 255  255 255 255  255 255 255  255 255 255
16 18 24  52 126 236  88 234 255  124 255 255  160 255 255  196 255 255  232 255 255  255 255 255  255 255 255  255 255 255  255 255 255  255 255 255  255 255 255  255 255 255  255 255 255  255 255 255
16 18 24  54 132 248  92 246 255  130 255 255  168 255 255  206 255 255  244 255 255  255 255 255  255 255 255  255 255 255  255 255 255  255 255 255  255 255 255  255 255 255  255 255 255  255 255 255
16 18 24  56 138 255  96 255 255  136 255 255  176 255 255  216 255 255  255 255 255  255 255 255  255 255 255  255 255 255  255 255 255  255 255 255  255 255 255  255 255 255  255 255 255  255 255 255
16 18 24  58 144 255  100 255 255  142 255 255  184 255 255  226 255 255  255 255 255  255 255 255  255 255 255  255 255 255  255 255 255  255 255 255  255 255 255  255 255 255  255 255 255  255 255 255
16 18 24  60 150 255  104 255 255  148 255 255  192 255 255  236 255 255  255 255 255  255 255 255  255 255 255  255 255 255  255 255 255  255 255 255  255 255 255  255 255 255  255 255 255  255 255 255
16 18 24  62 156 255  108 255 255  154 255 255  200 255 255  246 255 255  255 255 255  255 255 255  255 255 255  255 255 255  255 255 255  255 255 255  255 255 255  255 255 255  255 255 255  255 255 255
16 18 24  64 162 255  112 255 255  160 255 255  208 255 255  255 255 255  255 255 255  255 255 255  255 255 255  255 255 255  255 255 255  255 255 255  255 255 255  255 255 255  255 255 255  255 255 255
16 18 24  66 168 255  116 255 255  166 255 255  216 255 255  255 255 255  255 255 255  255 255 255  255 255 255  255 255 255  255 255 255  255 255 255  255 255 255  255 255 255  255 255 255  255 255 255
16 18 24  68 174 255  120 255 255  172 255 255  224 255 255  255 255 255  255 255 255  255 255 255  255 255 255  255 255 255  255 255 255  255 255 255  255 255 255  255 255 255  255 255 255  255 255 255
16 18 24  70 180 255  124 255 255  178 255 255  232 255 255  255 255 255  255 255 255  255 255 255  255 255 255  255 255 255  255 255 255  255 255 255  255 255 255  255 255 255  255 255 255  255 255 255
16 18 24  72 186 255  128 255 255  184 255 255  240 255 255  255 255 255  255 255 255  255 255 255  255 255 255  255 255 255  255 255 255  255 255 255  255 255 255  255 255 255  255 255 255  255 255 255
16 18 24  74 192 255  132 255 255  190 255 255  248 255 255  255 255 255  255 255 255  255 255 255  255 255 255  255 255 255  255 255 255  255 255 255  255 255 255  255 255 255  255 255 255  255 255 255
16 18 24  76 198 255  136 255 255  196 255 255  255 255 255  255 255 255  255 255 255  255 255 255  255 255 255  255 255 255  255 255 255  255 255 255  255 255 255  255 255 255  255 255 255  255 255 255
16 18 24  78 204 255  140 255 255  202 255 255  255 255 255  255 255 255  255 255 255  255 255 255  255 255 255  255 255 255  255 255 255  255 255 255  255 255 255  255 255 255  255 255 255  255 255 255
16 18 24  80 210 255  144 255 255  208 255 255  255 255 255  255 255 255  255 255 255  255 255 255  255 255 255  255 255 255  255 255 255  255 255 255  255 255 255  255 255 255  255 255 255  255 255 255
16 18 24  82 216 255  148 255 255  214 255 255  255 255 255  255 255 255  255 255 255  255 255 255  255 255 255  255 255 255  255 255 255  255 255 255  255 255 255  255 255 255  255 255 255  255 255 255
16 18 24  84 222 255  152 255 255  220 255 255  255 255 255  255 255 255  255 255 255  255 255 255  255 255 255  255 255 255  255 255 255  255 255 255  255 255 255  255 255 255  255 255 255  255 255 255
16 18 24  86 228 255  156 255 255  226 255 255  255 255 255  255 255 255  255 255 255  255 255 255  255 255 255  255 255 255  255 255 255  255 255 255  255 255 255  255 255 255  255 255 255  255 255 255
16 18 24  88 234 255  160 255 255  232 255 255  255 255 255  255 255 255  255 255 255  255 255 255  255 255 255  255 255 255  255 255 255  255 255 255  255 255 255  255 255 255  255 255 255  255 255 255
16 18 24  90 240 255  164 255 255  238 255 255  255 255 255  255 255 255  255 255 255  255 255 255  255 255 255  255 255 255  255 255 255  255 255 255  255 255 255  255 255 255  255 255 255  255 255 255
16 18 24  92 246 255  168 255 255  244 255 255  255 255 255  255 255 255  255 255 255  255 255 255  255 255 255  255 255 255  255 255 255  255 255 255  255 255 255  255 255 255  255 255 255  255 255 255
16 18 24  94 252 255  172 255 255  250 255 255  255 255 255  255 255 255  255 255 255  255 255 255  255 255 255  255 255 255  255 255 255  255 255 255  255 255 255  255 255 255  255 255 255  255 255 255
16 18 24  96 255 255  176 255 255  255 255 255  255 255 255  255 255 255  255 255 255  255 255 255  255 255 255  255 255 255  255 255 255  255 255 255  255 255 255  255 255 255  255 255 255  255 255 255  255 255 255
16 18 24  98 255 255  180 255 255  255 255 255  255 255 255  255 255 255  255 255 255  255 255 255  255 255 255  255 255 255  255 255 255  255 255 255  255 255 255  255 255 255  255 255 255  255 255 255  255 255 255
16 18 24  100 255 255  184 255 255  255 255 255  255 255 255  255 255 255  255 255 255  255 255 255  255 255 255  255 255 255  255 255 255  255 255 255  255 255 255  255 255 255  255 255 255  255 255 255  255 255 255
16 18 24  102 255 255  188 255 255  255 255 255  255 255 255  255 255 255  255 255 255  255 255 255  255 255 255  255 255 255  255 255 255  255 255 255  255 255 255  255 255 255  255 255 255  255 255 255  255 255 255
16 18 24  104 255 255  192 255 255  255 255 255  255 255 255  255 255 255  255 255 255  255 255 255  255 255 255  255 255 255  255 255 255  255 255 255  255 255 255  255 255 255  255 255 255  255 255 255  255 255 255
